brandFactory_export/1.Light/Flotador socorrista piscina_1Light.svg

<?xml version="1.0" encoding="UTF-8"?>
<svg width="24px" height="24px" viewBox="0 0 24 24" version="1.1" xmlns="http://www.w3.org/2000/svg" xmlns:xlink="http://www.w3.org/1999/xlink">
    <title>1.Light/Flotador socorrista piscina_1Light</title>
    <g id="Symbols" stroke="none" stroke-width="1" fill="none" fill-rule="evenodd">
        <g id="1.Light/Flotador-socorrista-piscina_1Light" fill="#5CB615" fill-rule="nonzero">
            <path d="M15.1596639,22.2588235 L14.3798319,18.487395 C15.9193277,18.0134454 17.7142857,16.9243697 18.4739496,14.4672269 L22.2588235,15.2470588 C21.1529412,19.8722689 17.8084034,21.6134454 15.1596639,22.2588235 M12.3361345,22.6352941 C11.9865546,22.6420168 11.6369748,22.6420168 11.287395,22.6386555 C10.6655462,22.6252101 10.0436975,22.5680672 9.42857143,22.4672269 L10.2016807,18.7260504 C10.702521,18.8134454 11.2067227,18.8571429 11.7142857,18.8571429 C11.8621849,18.8571429 12.010084,18.8537815 12.1378151,18.8537815 C12.5714286,18.8436975 13.0016807,18.7966387 13.4285714,18.7193277 L14.2016807,22.4638655 C13.4420168,22.5848739 12.789916,22.6252101 12.3361345,22.6352941 M1.37478992,15.2470588 L5.13613445,14.4705882 C5.81176471,16.6722689 7.30756303,17.7781513 8.71596639,18.3226891 C8.89411765,18.389916 9.06554622,18.4403361 9.24033613,18.4907563 L8.4605042,22.2689076 C7.45210084,22.0235294 6.32941176,21.6302521 5.27058824,20.9613445 C3.26386555,19.697479 1.97310924,17.7747899 1.37478992,15.2470588 M1.15294118,9.48907563 L4.8907563,10.2621849 C4.82016807,10.7361345 4.7697479,11.2336134 4.7697479,11.7882353 C4.7697479,12.4235294 4.83697479,12.9815126 4.92773109,13.5092437 L1.18991597,14.2823529 C1.05546218,13.4521008 0.988235294,12.6117647 0.988235294,11.7714286 C0.98487395,10.9647059 1.05210084,10.2117647 1.15294118,9.48907563 M5.2302521,2.62521008 C6.29243697,1.95630252 7.41512605,1.56638655 8.42689076,1.33109244 L9.21008403,5.1092437 C7.64033613,5.58319328 5.81512605,6.70252101 5.09579832,9.30084034 L1.31764706,8.5210084 C1.88571429,5.89243697 3.18655462,3.91260504 5.2302521,2.62521008 M11.1966387,0.98487395 L11.3983193,0.98487395 C11.697479,0.98487395 12.010084,0.988235294 12.2789916,0.994957983 C12.6991597,1.00504202 13.394958,1.05546218 14.2184874,1.2 L13.4487395,4.92773109 C13.005042,4.84369748 12.5546218,4.79327731 12.1008403,4.77647059 C11.9361345,4.77310924 11.7478992,4.7697479 11.5663866,4.7697479 L11.4352941,4.7697479 C11.0084034,4.77647059 10.5815126,4.81680672 10.1579832,4.88739496 L9.38487395,1.13613445 C10.1546218,1.01848739 10.7966387,0.988235294 11.1966387,0.98487395 M12.1142857,17.8655462 C11.9932773,17.8689076 11.8521008,17.8689076 11.7109244,17.8689076 L11.5058824,17.8689076 C10.6756303,17.8554622 9.85210084,17.697479 9.07563025,17.405042 C6.87394958,16.5512605 5.75462185,14.6621849 5.75462185,11.7882353 C5.75462185,6.38655462 9.73781513,5.76470588 11.4521008,5.7512605 L11.5764706,5.7512605 C11.7512605,5.7512605 11.9327731,5.75462185 12.087395,5.75462185 C13.8285714,5.79831933 17.8756303,6.47394958 17.8756303,11.8285714 C17.8689076,17.1831933 13.8453782,17.8352941 12.1142857,17.8655462 M22.2756303,8.52773109 L18.507563,9.30420168 C17.7747899,6.78655462 15.9663866,5.6605042 14.4033613,5.16638655 L15.1798319,1.41176471 C16.1714286,1.66386555 17.2638655,2.0605042 18.3058824,2.71260504 C20.3697479,4 21.687395,5.95630252 22.2756303,8.52773109 M18.7226891,10.2655462 L22.4537815,9.49243697 C22.5647059,10.2352941 22.6386555,11.0084034 22.6386555,11.8420168 C22.6386555,12.7361345 22.5546218,13.5294118 22.4336134,14.2823529 L18.702521,13.512605 C18.8033613,12.9579832 18.8537815,12.3932773 18.8537815,11.8319328 C18.8537815,11.2571429 18.8,10.7462185 18.7226891,10.2655462 M12.3058824,0.0134453782 C12.0268908,0.00672268908 11.707563,0 11.3983193,0 L11.1865546,0 C8.81680672,0.0201680672 0,0.833613445 0,11.7747899 C0,22.7294118 8.89747899,23.589916 11.2705882,23.6235294 C11.6302521,23.6268908 11.989916,23.6268908 12.3529412,23.6201681 C14.6084034,23.5798319 23.6268908,22.7327731 23.6268908,11.8453782 C23.6235294,0.981512605 14.6184874,0.0672268908 12.3058824,0.0134453782" id="Flotador-socorrista-piscina_1Light"></path>
        </g>
    </g>
</svg>

<svg width="24" height="24" viewBox="0 0 24 24" xmlns="http://www.w3.org/2000/svg"><path d="M15.16 22.259l-.78-3.772c1.54-.474 3.334-1.563 4.094-4.02l3.785.78c-1.106 4.625-4.45 6.366-7.1 7.012m-2.823.376c-.35.007-.699.007-1.049.004a13.27 13.27 0 01-1.858-.172l.773-3.74c.5.086 1.005.13 1.512.13.148 0 .296-.003.424-.003.433-.01.864-.057 1.29-.135l.774 3.745c-.76.12-1.412.161-1.866.171M1.375 15.247l3.761-.776c.676 2.201 2.172 3.307 3.58 3.852.178.067.35.117.524.168l-.78 3.778c-1.008-.245-2.13-.639-3.19-1.308-2.006-1.264-3.297-3.186-3.895-5.714M1.153 9.49l3.738.773c-.07.474-.121.972-.121 1.526 0 .636.067 1.194.158 1.721l-3.738.773a15.713 15.713 0 01-.037-4.793M5.23 2.625c1.062-.669 2.185-1.059 3.197-1.294L9.21 5.11c-1.57.474-3.395 1.594-4.114 4.192l-3.778-.78c.568-2.629 1.869-4.608 3.912-5.896m5.967-1.64h.201c.3 0 .612.003.881.01.42.01 1.116.06 1.94.205l-.77 3.728a9.04 9.04 0 00-1.348-.152 26.642 26.642 0 00-.535-.006h-.13a8.594 8.594 0 00-1.278.117l-.773-3.75c.77-.119 1.412-.149 1.812-.152m.917 16.88c-.12.004-.262.004-.403.004h-.205a7.235 7.235 0 01-2.43-.464c-2.202-.854-3.321-2.743-3.321-5.617 0-5.401 3.983-6.023 5.697-6.037h.124c.175 0 .357.004.511.004 1.742.043 5.789.719 5.789 6.074-.007 5.354-4.03 6.006-5.762 6.037m10.162-9.338l-3.768.776c-.733-2.517-2.542-3.643-4.105-4.138l.777-3.754c.991.252 2.084.649 3.126 1.3C20.37 4 21.687 5.957 22.276 8.529m-3.553 1.738l3.73-.774c.112.743.186 1.516.186 2.35a15.1 15.1 0 01-.205 2.44l-3.731-.77a9.413 9.413 0 00.02-3.246M12.306.013A38.278 38.278 0 0011.398 0h-.211C8.817.02 0 .834 0 11.775 0 22.729 8.897 23.59 11.27 23.624c.36.003.72.003 1.083-.004 2.255-.04 11.274-.887 11.274-11.775C23.624.982 14.618.067 12.306.013" fill="#5CB615" fill-rule="nonzero"/></svg>
